X:1
T:Title
%%score { 1 | 2 }
L:1/8
M:4/4
K:D
V:1 treble nm="Grand Piano"
V:2 bass 
V:1
 z4 z2[Q:1/4=100] [A,DF][A,EG] | [A,FA]2 [A,FA]2 [A,FA]2 [A,FA]2 | [Fd]4 [FA]2 [DF][EG] | %3
 [FA]2 [FA]2 [EG]2 [CE]2 | [DF]6 [DF][EG] | [FA]2 [FA]2 [FA]2 [FA]2 | [Fd]4 [FA]2 [EA][FB] | %7
 c2 A2 E2 ^G2 | [CA]6 AA | e2 c2 B2 A2 | [FA]4 [Fd]2 [Fd][Fd] | d2 c2 B2 ^A2 | [DFB]6 [Gc][Gc] | %13
 [Fd]2 [FA]2 [FA]2 [Fd]2 | [Ge]2 [DBd]2 [DAc]2 [DGB]2 | [DFA]2 [DF]2 [A,EG]2[K:bass] [G,CE]2 | %16
[M:3/4] [F,D]6 |] %17
V:2
 z4 z2 D,D, | D,2 D,2 D,2 D,2 | [D,A,]4 [D,A,]2 [D,A,][D,A,] | [D,A,]2 [D,A,]2 [A,,A,]2 [A,,A,]2 | %4
 [D,A,]6 [D,A,][D,A,] | [D,D]2 [D,D]2 [D,D]2 [D,D]2 | [D,A,]4 [D,D]2 [C,A,][D,A,] | %7
 [E,A,E]2 [E,A,C]2 [E,A,C]2 [E,B,D]2 | [A,,A,]6[K:treble] [A,CE][A,CE] | %9
 [A,CG]2 [A,EG]2 [A,DG]2 [A,CG]2 | [D,D]4 [D,A,]2 [B,,B,][B,,B,] | %11
 [F,B,F]2 [F,^A,F]2 [F,DF]2 [F,CF]2 | B,,6 [A,,A,][A,,A,] | [D,A,]2 [D,D]2 [D,D]2 [D,A,]2 | %14
 [G,B,]2 G,2 G,2 G,2 | A,2 A,2 A,,2 A,,2 |[M:3/4] D,6 |] %17

